rospo-icon-theme-classic-common/48x48/apps/superproductivity.svg

<svg height="48" viewBox="0 0 48 48" width="48" xmlns="http://www.w3.org/2000/svg"><circle cx="24" cy="25" opacity=".2" r="20"/><circle cx="24" cy="24" fill="#7861e6" r="20"/><path d="m24 4a20 20 0 0 0 -20 20 20 20 0 0 0  .0215.582 20 20 0 0 1 19.9785-19.582 20 20 0 0 1 19.979 19.418 20 20 0 0 0  .021-.418 20 20 0 0 0 -20-20z" fill="#fff" opacity=".2"/><circle cx="24" cy="25" opacity=".2" r="14"/><circle cx="24" cy="24" fill="#acc0ff" r="14"/><path d="m18 21.000253 6 8 16-20" style="opacity:.2;fill:none;stroke:#000;stroke-width:8;stroke-linecap:round;stroke-linejoin:round"/><path d="m18 20 6 8 16-20" fill="none" stroke="#3f3f3f" stroke-linecap="round" stroke-linejoin="round" stroke-width="8"/></svg>

<svg xmlns="http://www.w3.org/2000/svg" width="48" height="48" version="1.1" viewBox="0 0 48 48">
 <circle style="opacity:0.2" cx="24" cy="25" r="20"/>
 <circle style="fill:#7861e6" cx="24" cy="24" r="20"/>
 <path style="opacity:0.2;fill:#ffffff" d="M 24 4 A 20 20 0 0 0 4 24 A 20 20 0 0 0 4.0215 24.582 A 20 20 0 0 1 24 5 A 20 20 0 0 1 43.979 24.418 A 20 20 0 0 0 44 24 A 20 20 0 0 0 24 4 z"/>
 <circle style="opacity:0.2" cx="24" cy="25" r="14"/>
 <circle style="fill:#acc0ff" cx="24" cy="24" r="14"/>
 <path d="m 18,21.000253 6,8 16,-20" style="opacity:0.2;fill:none;stroke:#000000;stroke-width:8;stroke-linecap:round;stroke-linejoin:round"/>
 <path style="fill:none;stroke:#3f3f3f;stroke-width:8;stroke-linecap:round;stroke-linejoin:round" d="M 18,20 24,28 40,8"/>
</svg>
